X:1
T:Partition sans titre
C:Compositeur / Arrangeur
L:1/8
M:4/4
I:linebreak $
K:D
V:1 treble nm="Violon" snm="Vln."
V:1
"Em" E2 BE AEBE |"D" d2 cA BAFD |"Em" E2 BE AEBE |"D" d2 cd effe |"Em" E2 BE AEBE |"D" d2 cA BAFD | %6
"Em" E2 BE AEBE |"D" d2 cd"Em" e3 e ::"D" d2 fd edfd |"G" g2 fg abaf |"D" d2 fd edfd | %11
"G" g2 fg"D" a3 a ::"G" B2 d2 c2 B2 |"D" A2 DF AdcA |"G" B2 d2 c2 B2 |"D" A2 DF AdcA :| %16
